Suru++-Ubuntu/apps/scalable/clock-app.svg

<svg width="256" height="256" version="1.1" viewBox="0 0 67.73 67.73" xmlns="http://www.w3.org/2000/svg" xmlns:xlink="http://www.w3.org/1999/xlink">
 <defs>
  <clipPath id="clipPath1082-3-535">
   <path d="M 361.9375,-212 C 507.2348,-212 528,-191.28677 528,-46.125 V 70.125 C 528,215.28618 507.2348,236 361.9375,236 H 214.0625 C 68.7652,236 48,215.28618 48,70.125 V -46.125 C 48,-191.28677 68.7652,-212 214.0625,-212 Z" style="fill:#8c59d9"/>
  </clipPath>
  <filter id="filter4278" x="-.01" y="-.01" width="1.024" height="1.024" style="color-interpolation-filters:sRGB">
   <feGaussianBlur stdDeviation="1.384"/>
  </filter>
  <linearGradient id="linearGradient4290" x1="226.84" x2="406.448" y1="429.516" y2="146.703" gradientUnits="userSpaceOnUse">
   <stop style="stop-color:#000000;stop-opacity:0" offset="0"/>
   <stop style="stop-color:#000000" offset=".496"/>
   <stop style="stop-color:#000000;stop-opacity:0" offset="1"/>
  </linearGradient>
  <linearGradient id="linearGradient938-9" x1="32" x2="272" y1="156" y2="156" gradientTransform="matrix(.09049283 .248627 -.248627 .09049283 58.2541 211.33944)" gradientUnits="userSpaceOnUse">
   <stop style="stop-color:#666666" offset="0"/>
   <stop style="stop-color:#666666" offset="1"/>
  </linearGradient>
  <filter id="filter920-7" x="-.02" y="-.03" width="1.046" height="1.05" style="color-interpolation-filters:sRGB">
   <feGaussianBlur stdDeviation="2.32"/>
  </filter>
  <filter id="filter4569-9" x="-.01" y="-.01" width="1.023" height="1.025" style="color-interpolation-filters:sRGB">
   <feGaussianBlur stdDeviation="1.16"/>
  </filter>
  <linearGradient id="linearGradient947" x1="296" x2="296" y1="-212" y2="202.4" gradientTransform="translate(-2e-6,-2e-6)" gradientUnits="userSpaceOnUse">
   <stop style="stop-color:#ffffff" offset="0"/>
   <stop style="stop-color:#ffffff;stop-opacity:.09803922" offset=".135"/>
   <stop style="stop-color:#000000;stop-opacity:0" offset="1"/>
  </linearGradient>
 </defs>
 <g transform="translate(0,-229.26666)">
  <path transform="matrix(.26458333 0 0 .26458333 -1.8735226e-8 232.67026)" d="m162.53675 3.5680001c72.64865 0 83.03125 10.356615 83.03125 82.937505v58.125005c0 72.58059-10.3826 82.9375-83.03125 82.9375h-73.937496c-72.648654 0-83.031254-10.35691-83.031254-82.9375v-58.125005c0-72.58089 10.3826-82.937505 83.031254-82.937505z" style="filter:url(#filter4569-9);opacity:.1"/>
  <path transform="matrix(.26458333 0 0 .26458333 -1.8735226e-8 232.67026)" d="m162.53675 5.5680001c72.64865 0 83.03125 10.356615 83.03125 82.937505v58.125005c0 72.58059-10.3826 82.9375-83.03125 82.9375h-73.937496c-72.648654 0-83.031254-10.35691-83.031254-82.9375v-58.125005c0-72.58089 10.3826-82.937505 83.031254-82.937505z" style="filter:url(#filter920-7);opacity:.2"/>
  <path d="m43.004526 233.6143c19.22162 0 21.96868 2.74019 21.968683 21.94388v15.37891c0 19.20361-2.747066 21.94388-21.968683 21.94388h-19.562634c-19.221622 0-21.968682-2.74027-21.968682-21.94388v-15.37891c0-19.20369 2.74706-21.94388 21.968685-21.94388z" style="fill:url(#linearGradient938-9)"/>
  <path d="m2.07471 244.79552c-0.45342 2.83633-0.60151 6.36315-0.60151 10.76265v15.37891c0 19.20361 2.74706 21.94388 21.968681 21.94388h19.56263c14.310754 0 19.487054-1.52457 21.199223-10.22573z" style="fill:#ffffff;opacity:.05"/>
  <g transform="matrix(.26458333 0 0 .26458333 -6.99347 221.97263)" style="enable-background:new">
   <path transform="matrix(.5 0 0 .5 24 28)" d="m418.56445 154.90625-150.71093 87.01367a20 20 0 0 0-5.85352-2.99414v-20.92578h-12v20.94531a20 20 0 0 0-5.85352 2.97461l-91.92382-53.07422-8 13.85742 91.91211 53.06641a20 20 0 0 0-0.13477 2.23047 20 20 0 0 0 14 19.07422v148.92578h12v-148.94531a20 20 0 0 0 14-19.05469 20 20 0 0 0-0.14844-2.22266l150.71289-87.01562z" style="filter:url(#filter4278);opacity:.1"/>
   <path transform="matrix(.5 0 0 .5 24 28)" d="m418.56445 154.90625-150.71093 87.01367a20 20 0 0 0-5.85352-2.99414v-20.92578h-12v20.94531a20 20 0 0 0-5.85352 2.97461l-91.92382-53.07422-8 13.85742 91.91211 53.06641a20 20 0 0 0-0.13477 2.23047 20 20 0 0 0 14 19.07422v148.92578h12v-148.94531a20 20 0 0 0 14-19.05469 20 20 0 0 0-0.14844-2.22266l150.71289-87.01562z" style="fill:url(#linearGradient4290);filter:url(#filter4300);opacity:.4"/>
   <circle cx="152" cy="156.318" r="3.146" style="fill:#cccccc"/>
   <path d="M 98.111225,124.8873 152,156 235.28265,107.91674" style="fill:none;stroke-width:8;stroke:#f1f0e9"/>
   <circle cx="152" cy="156" r="10" style="fill:#f22c42"/>
   <path d="m152 136v104" style="fill:none;stroke-width:6;stroke:#f22c42"/>
  </g>
  <path transform="matrix(.13229167 0 0 .13229167 -4.8768 261.66013)" d="M 361.9375,-212 C 507.2348,-212 528,-191.28677 528,-46.125 V 70.125 C 528,215.28618 507.2348,236 361.9375,236 H 214.0625 C 68.7652,236 48,215.28618 48,70.125 V -46.125 C 48,-191.28677 68.7652,-212 214.0625,-212 Z" clip-path="url(#clipPath1082-3-535)" style="fill:none;opacity:.4;stroke-linecap:round;stroke-linejoin:round;stroke-width:8;stroke:url(#linearGradient947)"/>
 </g>
</svg>

<svg xmlns="http://www.w3.org/2000/svg" xmlns:xlink="http://www.w3.org/1999/xlink" width="256" height="256" version="1.1" viewBox="0 0 67.73 67.73">
 <defs>
  <linearGradient id="linearGradient1013">
   <stop style="stop-color:#ffffff" offset="0"/>
   <stop offset=".135" style="stop-color:#ffffff;stop-opacity:0.09803922"/>
   <stop offset="1" style="stop-color:#000000;stop-opacity:0"/>
  </linearGradient>
  <linearGradient id="linearGradient4239">
   <stop style="stop-color:#666666" offset="0"/>
   <stop style="stop-color:#666666" offset="1"/>
  </linearGradient>
  <clipPath id="clipPath1082-3-535" clipPathUnits="userSpaceOnUse">
   <path style="fill:#8c59d9" d="M 361.9375,-212 C 507.2348,-212 528,-191.28677 528,-46.125 V 70.125 C 528,215.28618 507.2348,236 361.9375,236 H 214.0625 C 68.7652,236 48,215.28618 48,70.125 V -46.125 C 48,-191.28677 68.7652,-212 214.0625,-212 Z"/>
  </clipPath>
  <filter id="filter4278" width="1.024" height="1.024" x="-.01" y="-.01" style="color-interpolation-filters:sRGB">
   <feGaussianBlur stdDeviation="1.384"/>
  </filter>
  <linearGradient id="linearGradient4290" x1="226.84" x2="406.448" y1="429.516" y2="146.703" gradientUnits="userSpaceOnUse" xlink:href="#linearGradient4292"/>
  <linearGradient id="linearGradient4292">
   <stop style="stop-color:#000000;stop-opacity:0" offset="0"/>
   <stop offset=".496" style="stop-color:#000000"/>
   <stop style="stop-color:#000000;stop-opacity:0" offset="1"/>
  </linearGradient>
  <linearGradient id="linearGradient938-9" x1="32" x2="272" y1="156" y2="156" gradientTransform="matrix(0.09049283,0.248627,-0.248627,0.09049283,58.2541,211.33944)" gradientUnits="userSpaceOnUse" xlink:href="#linearGradient4239"/>
  <filter id="filter920-7" width="1.046" height="1.05" x="-.02" y="-.03" style="color-interpolation-filters:sRGB">
   <feGaussianBlur stdDeviation="2.32"/>
  </filter>
  <filter id="filter4569-9" width="1.023" height="1.025" x="-.01" y="-.01" style="color-interpolation-filters:sRGB">
   <feGaussianBlur stdDeviation="1.16"/>
  </filter>
  <linearGradient id="linearGradient947" x1="296" x2="296" y1="-212" y2="202.4" gradientTransform="translate(-2e-6,-2e-6)" gradientUnits="userSpaceOnUse" xlink:href="#linearGradient1013"/>
 </defs>
 <g transform="translate(0,-229.26666)">
  <path style="opacity:0.1;filter:url(#filter4569-9)" d="m 162.53675,3.5680001 c 72.64865,0 83.03125,10.3566149 83.03125,82.9375049 v 58.125005 c 0,72.58059 -10.3826,82.9375 -83.03125,82.9375 H 88.599254 C 15.9506,227.56801 5.568,217.2111 5.568,144.63051 V 86.505505 c 0,-72.58089 10.3826,-82.9375049 83.031254,-82.9375049 z" transform="matrix(0.26458333,0,0,0.26458333,-1.8735226e-8,232.67026)"/>
  <path d="m 162.53675,5.5680001 c 72.64865,0 83.03125,10.3566149 83.03125,82.9375049 v 58.125005 c 0,72.58059 -10.3826,82.9375 -83.03125,82.9375 H 88.599254 C 15.9506,229.56801 5.568,219.2111 5.568,146.63051 V 88.505505 c 0,-72.58089 10.3826,-82.9375049 83.031254,-82.9375049 z" transform="matrix(0.26458333,0,0,0.26458333,-1.8735226e-8,232.67026)" style="opacity:0.2;filter:url(#filter920-7)"/>
  <path d="m 43.004526,233.6143 c 19.22162,0 21.96868,2.74019 21.968683,21.94388 v 15.37891 c 0,19.20361 -2.747066,21.94388 -21.968683,21.94388 H 23.441892 C 4.22027,292.88097 1.47321,290.1407 1.47321,270.93709 v -15.37891 c 0,-19.20369 2.74706,-21.94388 21.968685,-21.94388 z" style="fill:url(#linearGradient938-9)"/>
  <path d="m 2.07471,244.79552 c -0.45342,2.83633 -0.60151,6.36315 -0.60151,10.76265 v 15.37891 c 0,19.20361 2.74706,21.94388 21.968681,21.94388 h 19.56263 c 14.310754,0 19.487054,-1.52457 21.199223,-10.22573 z" style="opacity:0.05;fill:#ffffff"/>
  <g style="enable-background:new" transform="matrix(0.26458333,0,0,0.26458333,-6.99347,221.97263)">
   <path style="opacity:0.1;filter:url(#filter4278)" d="M 418.56445,154.90625 267.85352,241.91992 A 20,20 0 0 0 262,238.92578 V 218 h -12 v 20.94531 a 20,20 0 0 0 -5.85352,2.97461 l -91.92382,-53.07422 -8,13.85742 91.91211,53.06641 A 20,20 0 0 0 236,258 20,20 0 0 0 250,277.07422 V 426 h 12 V 277.05469 A 20,20 0 0 0 276,258 a 20,20 0 0 0 -0.14844,-2.22266 l 150.71289,-87.01562 z" transform="matrix(0.5,0,0,0.5,24,28)"/>
   <path d="M 418.56445,154.90625 267.85352,241.91992 A 20,20 0 0 0 262,238.92578 V 218 h -12 v 20.94531 a 20,20 0 0 0 -5.85352,2.97461 l -91.92382,-53.07422 -8,13.85742 91.91211,53.06641 A 20,20 0 0 0 236,258 20,20 0 0 0 250,277.07422 V 426 h 12 V 277.05469 A 20,20 0 0 0 276,258 a 20,20 0 0 0 -0.14844,-2.22266 l 150.71289,-87.01562 z" transform="matrix(0.5,0,0,0.5,24,28)" style="opacity:0.4;fill:url(#linearGradient4290);filter:url(#filter4300)"/>
   <circle cx="152" cy="156.318" r="3.146" style="fill:#cccccc"/>
   <path style="fill:none;stroke:#f1f0e9;stroke-width:8" d="M 98.111225,124.8873 152,156 235.28265,107.91674"/>
   <circle style="fill:#f22c42" cx="152" cy="156" r="10"/>
   <path style="fill:none;stroke:#f22c42;stroke-width:6" d="M 152,136 V 240"/>
  </g>
  <path style="opacity:0.4;fill:none;stroke:url(#linearGradient947);stroke-width:8;stroke-linecap:round;stroke-linejoin:round" d="M 361.9375,-212 C 507.2348,-212 528,-191.28677 528,-46.125 V 70.125 C 528,215.28618 507.2348,236 361.9375,236 H 214.0625 C 68.7652,236 48,215.28618 48,70.125 V -46.125 C 48,-191.28677 68.7652,-212 214.0625,-212 Z" clip-path="url(#clipPath1082-3-535)" transform="matrix(0.13229167,0,0,0.13229167,-4.8768,261.66013)"/>
 </g>
</svg>
